Sources/FrostedUI/Resources/Icons.xcassets/cameraAdd20.imageset/camera-add-20.svg

<svg width="20" height="20" viewBox="0 0 20 20" fill="none" xmlns="http://www.w3.org/2000/svg" data-fui-icon="true">
  <path
    d="M11.75 1C12.1642 1 12.5 1.33579 12.5 1.75C12.5 2.16421 12.1642 2.5 11.75 2.5H8.10547C7.35321 2.50003 6.65068 2.87603 6.2334 3.50195L5.80078 4.15039C5.23892 4.99318 4.29316 5.49986 3.28027 5.5C2.43536 5.5 1.75 6.18536 1.75 7.03027V15.25C1.75 16.4926 2.75736 17.5 4 17.5H16C17.2426 17.5 18.25 16.4926 18.25 15.25V9.5C18.25 9.08579 18.5858 8.75 19 8.75C19.4142 8.75 19.75 9.08579 19.75 9.5V15.25C19.75 17.3211 18.0711 19 16 19H4C1.92893 19 0.25 17.3211 0.25 15.25V7.03027C0.25 5.35693 1.60693 4 3.28027 4C3.79163 3.99986 4.26907 3.74385 4.55273 3.31836L4.98535 2.66992C5.68083 1.6267 6.85168 1.00003 8.10547 1H11.75ZM10 6.5C12.3472 6.5 14.25 8.40279 14.25 10.75C14.25 13.0972 12.3472 15 10 15C7.65279 15 5.75 13.0972 5.75 10.75C5.75 8.40279 7.65279 6.5 10 6.5ZM10 8C8.48122 8 7.25 9.23122 7.25 10.75C7.25 12.2688 8.48122 13.5 10 13.5C11.5188 13.5 12.75 12.2688 12.75 10.75C12.75 9.23122 11.5188 8 10 8ZM16.5 1C16.9142 1 17.25 1.33579 17.25 1.75V3.5H19C19.4142 3.5 19.75 3.83579 19.75 4.25C19.75 4.66421 19.4142 5 19 5H17.25V6.75C17.25 7.16421 16.9142 7.5 16.5 7.5C16.0858 7.5 15.75 7.16421 15.75 6.75V5H14C13.5858 5 13.25 4.66421 13.25 4.25C13.25 3.83579 13.5858 3.5 14 3.5H15.75V1.75C15.75 1.33579 16.0858 1 16.5 1Z"
    fill="currentColor"
  />
</svg>

<svg xmlns="http://www.w3.org/2000/svg" width="20" height="20" fill="none" data-fui-icon="true" viewBox="0 0 20 20"><path fill="currentColor" d="M11.75 1a.75.75 0 0 1 0 1.5H8.105a2.25 2.25 0 0 0-1.872 1.002l-.432.648A3.03 3.03 0 0 1 3.28 5.5 1.53 1.53 0 0 0 1.75 7.03v8.22A2.25 2.25 0 0 0 4 17.5h12a2.25 2.25 0 0 0 2.25-2.25V9.5a.75.75 0 0 1 1.5 0v5.75A3.75 3.75 0 0 1 16 19H4a3.75 3.75 0 0 1-3.75-3.75V7.03A3.03 3.03 0 0 1 3.28 4a1.53 1.53 0 0 0 1.273-.682l.432-.648A3.75 3.75 0 0 1 8.105 1zM10 6.5a4.25 4.25 0 1 1 0 8.5 4.25 4.25 0 0 1 0-8.5M10 8a2.75 2.75 0 1 0 0 5.5A2.75 2.75 0 0 0 10 8m6.5-7a.75.75 0 0 1 .75.75V3.5H19A.75.75 0 0 1 19 5h-1.75v1.75a.75.75 0 0 1-1.5 0V5H14a.75.75 0 0 1 0-1.5h1.75V1.75A.75.75 0 0 1 16.5 1"/></svg>
